X:1
T:Title
%%score { ( 1 4 ) | ( 2 3 ) }
L:1/8
M:4/4
K:Eb
V:1 treble nm="Grand Piano"
V:4 treble 
V:2 bass 
V:3 bass 
V:1
 z4 z2[Q:1/4=100] EF | GG G2 G2 FE | G[EGB] [DAB]2 [EGB]2 [B,EG][EGB] | %3
 [EAc][EAc] [Ae]2 [Ac] [GB]2 [EG] |[M:3/4] [DF]6 |[M:1/4] [DB]>[FA] |[M:4/4] GG c2 B2 G[GB] | %7
 cc e2 c2 [Ad][Ad] | [Ge]2 [GB][EG] [GB]A [B,EG]>[A,DF] |[M:3/4] [G,E]6 |[M:1/4] [DB]2 | %11
[M:4/4] [DF][DF][DF][EG] [FA]2 [EG][DF] | [EG]6 z2 | [Ac]2- [EA-c-][EA-c-] [Ac]e[Bd][Ac] | %14
 [GB]6 z2 | [EA]2 B2 c2 BB | c2 [Ad]2 [Ge]2 [B,EB][CFA] | z4 [DF]4 |[M:3/4] E2 E4 |] %19
V:2
 z4 z2 [E,G,][E,A,E] | [E,B,E][E,B,E] [E,B,E]2 [E,B,E]2 [E,A,D][E,G,] | [E,B,E]E, B,,2 E,2 E,E, | %3
 A,A, [A,C]2 [E,E] [E,E]2 [E,B,] |[M:3/4] [B,,B,]6 |[M:1/4] [B,,B,]>[B,,B,] | %6
[M:4/4] [E,B,E][E,B,E] [E,A,E]2 [E,G,E]2 [E,B,E][E,E] | %7
 [A,EA][A,EA] [A,CA]2 [A,EA]2[K:bass] [F,B,][F,B,] | [E,B,]2 [E,E][E,B,] z F B,,>B,, |[M:3/4] E,6 | %10
[M:1/4] [B,,F,]2 |[M:4/4] [B,,B,][B,,B,][B,,B,][B,,B,] [B,,B,]2 [B,,B,][B,,B,] | %12
 [E,B,]2 E,E, E,2 E,E, | A,2 A,A, z[K:treble] c [A,E]2 | [E,E]E,E,E, E,2 [E,B,E]2 | %15
 [C,A,]2 [E,G,E]2 [A,E]2 [E,G,E][E,G,E] | [A,E]2 [F,B,]2 [E,B,]2 G,A, | B,2 B,2 B,,2 B,,2 | %18
[M:3/4] [E,G,]2 [E,G,]4 |] %19
V:3
 x8 | x8 | x8 | x8 |[M:3/4] x6 |[M:1/4] x2 |[M:4/4] x8 | x6[K:bass] x2 | z4 [B,,B,]2 z2 | %9
[M:3/4] x6 |[M:1/4] x2 |[M:4/4] x8 | x8 | z4 A,2[K:treble] z2 | x8 | x8 | x8 | x8 |[M:3/4] x6 |] %19
V:4
 x8 | x8 | x8 | x8 |[M:3/4] x6 |[M:1/4] x2 |[M:4/4] x8 | x8 | x8 |[M:3/4] x6 |[M:1/4] x2 | %11
[M:4/4] x8 | z2 B,B, B,2 [EGB][EGB] | E2 z2 E2 z2 | z EEE E2 G2 | x8 | x8 | [EG]4 A,2 A,2 | %18
[M:3/4] x6 |] %19

